icons/behance-line.svg

<svg viewBox="0 0 24 24" fill="currentColor" xmlns="http://www.w3.org/2000/svg">
    <path d="M7.5 11C8.60457 11 9.5 10.1046 9.5 9C9.5 7.89543 8.60457 7 7.5 7H3V11H7.5ZM8.5 13H3V17H8.5C9.60457 17 10.5 16.1046 10.5 15C10.5 13.8954 9.60457 13 8.5 13ZM10.5632 11.5725C11.7239 12.2726 12.5 13.5457 12.5 15C12.5 17.2091 10.7091 19 8.5 19H1V5H7.5C9.70914 5 11.5 6.79086 11.5 9C11.5 9.97964 11.1478 10.877 10.5632 11.5725ZM15.5 6H21V7.5H15.5V6ZM23 14.5H15.5V14.75C15.5 16.2688 16.7312 17.5 18.25 17.5C19.3187 17.5 20.245 16.8904 20.7001 16H22.8338C22.2851 18.0169 20.4407 19.5 18.25 19.5C15.6266 19.5 13.5 17.3734 13.5 14.75V13.25C13.5 10.6266 15.6266 8.5 18.25 8.5C20.8734 8.5 23 10.6266 23 13.25V14.5ZM20.8965 12.5C20.57 11.3457 19.5088 10.5 18.25 10.5C16.9912 10.5 15.93 11.3457 15.6035 12.5H20.8965Z"/>
</svg>

<svg xmlns="http://www.w3.org/2000/svg" viewBox="0 0 24 24">
    <g>
        <path fill="none" d="M0 0h24v24H0z"/>
        <path d="M7.5 11a2 2 0 1 0 0-4H3v4h4.5zm1 2H3v4h5.5a2 2 0 1 0 0-4zm2.063-1.428A4 4 0 0 1 8.5 19H1V5h6.5a4 4 0 0 1 3.063 6.572zM15.5 6H21v1.5h-5.5V6zm7.5 8.5h-7.5v.25A2.75 2.75 0 0 0 20.7 16h2.134a4.752 4.752 0 0 1-9.334-1.25v-1.5a4.75 4.75 0 1 1 9.5 0v1.25zm-2.104-2a2.751 2.751 0 0 0-5.292 0h5.292z"/>
    </g>
</svg>
